X: 2
M:6/8
L:1/8
K:G
d2d ed^c|d2B G2B|A2F D2D|B2A G2 (B/c/)|d2d ed^c|d2B G2B|
|:d2d e2d|B2d b2b|c'2d def|g2a b2 (B/c/)|d2d e2d|B2d b2b|c'2d def|g3g2:|



